app/assets/images/heroicons/outline/receipt-percent.svg

<svg width="24" height="24" viewBox="0 0 24 24" fill="none" xmlns="http://www.w3.org/2000/svg">
<path d="M9 14.25L15 8.25M19.5 4.75699V21.75L15.75 20.25L12 21.75L8.25 20.25L4.5 21.75V4.75699C4.5 3.649 5.30608 2.70014 6.40668 2.57241C8.24156 2.35947 10.108 2.25 12 2.25C13.892 2.25 15.7584 2.35947 17.5933 2.57241C18.6939 2.70014 19.5 3.649 19.5 4.75699ZM9.75 9H9.7575V9.0075H9.75V9ZM10.125 9C10.125 9.20711 9.95711 9.375 9.75 9.375C9.54289 9.375 9.375 9.20711 9.375 9C9.375 8.79289 9.54289 8.625 9.75 8.625C9.95711 8.625 10.125 8.79289 10.125 9ZM14.25 13.5H14.2575V13.5075H14.25V13.5ZM14.625 13.5C14.625 13.7071 14.4571 13.875 14.25 13.875C14.0429 13.875 13.875 13.7071 13.875 13.5C13.875 13.2929 14.0429 13.125 14.25 13.125C14.4571 13.125 14.625 13.2929 14.625 13.5Z" stroke="#0F172A" stroke-width="1.5" stroke-linecap="round" stroke-linejoin="round"/>
</svg>

<svg xmlns="http://www.w3.org/2000/svg" fill="none" viewBox="0 0 24 24" stroke-width="1.5" stroke="currentColor" aria-hidden="true" data-slot="icon">
  <path stroke-linecap="round" stroke-linejoin="round" d="m9 14.25 6-6m4.5-3.493V21.75l-3.75-1.5-3.75 1.5-3.75-1.5-3.75 1.5V4.757c0-1.108.806-2.057 1.907-2.185a48.507 48.507 0 0 1 11.186 0c1.1.128 1.907 1.077 1.907 2.185ZM9.75 9h.008v.008H9.75V9Zm.375 0a.375.375 0 1 1-.75 0 .375.375 0 0 1 .75 0Zm4.125 4.5h.008v.008h-.008V13.5Zm.375 0a.375.375 0 1 1-.75 0 .375.375 0 0 1 .75 0Z"/>
</svg>
